X: 492
T: Cotton Patch Rag
C:Traditional, Arr. Joe Carr
B: jims roots
M:4/4
L:1/8
Q: 1/4=100
K:C
V:1 
%Q:420
z2 e2 f2 ^f2 | "C"gega gecd | edea gecA | "F"FEFG AGA_B | cfc_B AGFA |
"G"G^FGA Bde^f | g^fga g=fed | "C"cBcd edef | "G"gfga gfef |
"C"gafg efde | cd_Bc ABGA | "F"cd_Bc ABGA | FGFE DCB,A, |
"G"G,A,B,D E^FGA | Bc^cd BGED | G^F=F^D ECA,G, | "C"C8 |
|:"C"[c'4e4] [a4e4] | [ae][c'e][ae][c'e] [a2e2] z2 | "F"[f4A4] [d4A4] | [dA][fA][dA][fA] [d2A2] BA | "G"GEDB, A,B,G,A,| [1 B,DE^F G4 |
"C"cBcd edce | "G"dcBA G4:| [2 "G"B,DE^F G2 GA | BABc dcBd | "C"c2 e2 f2 ^f2 ||
"C"G,CEC G,CEC| G,CEG FEDC | "F"A,DFD A,DFD | A,DFG FEDC |
"G"B,CB,A, G,A,B,D | E^FGA B4 | "C"cBcd edce | "G"dcBA G4 |
"C"G,CEC G,CEC | G,CEG FEDC | "F"A,DFD A,DFD | A,DFG FEDC |
"G"B,CB,A, G,A,B,D | E^FGA B4 | BABc dcBd | "C"c2 [c2E2] [c4E4]||
% abcbook-tune_id 6298c2459c71a4558562e801


% abcbook-boost 0
% abcbook-tablature 
% abcbook-transpose 
% abcbook-lastupdated 1654178373822
% abcbook-soundfonts 
% abcbook-repeats 1


